X: 10066
T: Dick's Maggot
R: three-two
M: 3/2
K: Gmajor
g2d2- d2B2- B2A2|Bcd2 G2F2 G4|g2d2- d2B2- B2A2|A4- A4 G4||
g2d2- d2B2- B2A2|Bcd2 G2F2 G4|g2d2- d2B2- B2A2|BAG2 A2F2 G4||

